X: 19376
T: Jack's The Lad
R: hornpipe
M: 4/4
K: Dmajor
dc|d2D2 D2AG|FAd2 dfed|e2E2 E2AG|FGAB A4|
gfga bagf|gfed dcBA|Bdce dfeg|f2d2 d2:|
|:AG|FAdA FAdA|B2G2 G2GF|EBeB EBeB|c2A2 A2f2|
gfga bagf|gefd dcBA|Bdce dfeg|f2d2 d2:|

